!!!OTL@@DE: Abschied
!!!COM: Methfessel, Albert
!!!ONB: Meist nach Mel. No. 41 gesungen
!!!ODT: 1820
!!!OMD: Nicht schleppend
!!!LYR: Schwab, Gustav
!!!LDT: 1814
!!!OCL: Erk, Ludwig
!!!GCO: Deutscher Liederschatz, Band 1
**kern	**kern	**kern
*staff3	*staff2	*staff1
*Ipiano	*Ipiano	*Ivox
*clefF4	*clefG2	*clefG2
*k[b-]	*k[b-]	*k[b-]
*F:	*F:	*F:
*M6/8	*M6/8	*M6/8
*MM88	*MM88	*MM88
8r	(16a/ 16cc/LL	(16cc\LL
.	16g/) 16b-/JJ	16b-\JJ)
=1	=1	=1
4F\ 4c\	4f/ 4a/	4a/
8F\ 8c\	8f/ 8a/	8a/
*	*^	*
4F\ 4c\	8.a/L	4f\	(8.a/L
.	16b-/Jk	.	16b-/Jk)
*	*v	*v	*
8E\ 8c\	8g/ 8cc/	8cc\
=2	=2	=2
4D\ 4A\	4f/	4f/
8D\	8A/ 8f/	8f/
(8.D/L	4A/ 4f/	4f/
16C/Jk	.	.
16BB-/LL	8d/ 8f/	8f/
16AA/JJ)	.	.
=3	=3	=3
4GG/	4d/ 4g/ 4b-/	4b-\
8G\	8d/ 8g/ 8b-/	8b-\
(8.G\L	8.b-\ (8.dd\L	(8.dd\L
16A\Jk	16a\ 16cc\Jk	16cc\Jk)
16B-\LL	16g/ 16b-/LL	(16b-/LL
16Bn\JJ)	16f/ 16a/JJ)	16a/JJ)
=4	=4	=4
4c\	(8.e/ 8.g/L	(8.g/L
.	16a/k	16a/Jk)
8C\ 8c\	8e/) 8g/J	8g/
4C\ 4c\	4e/ 4g/	4g/
8r	8a\ 8cc\	8cc\
=5	=5	=5
4FF/ 4C/	(8a/ 8cc/L	(8cc\L
.	8f/) 8a/	8a\J)
8FF/ 8C/	8g/ 8b-/J	8b-\
(8FF/ 8F/L	4a\ 4cc\	4cc\
8C/	.	.
8AA/J)	8cc\ 8ff\	8ff\
=6	=6	=6
4FF/	(8a/ 8cc/L	(8cc\L
.	8f/) 8a/	8a\J)
8FF/ 8C/	8g/ 8b-/J	8b-\
(8FF/ 8F/L	4a\ 4cc\	4cc\
8C/	.	.
8AA/J)	8f/	8f/
=7	=7	=7
8BB-\L	(8.b-/ 8.dd/L	(8.dd^\L
(8B-\	.	.
.	16a/) 16cc/k	16cc\Jk)
8d\J)	8g/ 8b-/J	8b-\
8C\L	(8.a/ 8.cc/L	(8.cc^\L
(8A\	.	.
.	16g/) 16b-/k	16b-\Jk)
8c\J)	8f/ 8a/J	8a/
=8	=8	=8
8C\L	(8.g/ 8.b-/L	(8.b-^/L
(8B-\	.	.
.	16f/) 16a/k	16a/Jk)
8c\J)	8e/ 8g/J	8g/
8F\ 8A\L	4f/ 4a/	4a/
8C\	.	.
8AA\J	8cc\	8cc\
=9	=9	=9
4FF/ 4C/	(8a/ 8cc/L	(8cc\L
.	8f/) 8a/	8a\J)
8FF/ 8C/	8g/ 8b-/J	8b-\
(8FF/ 8F/L	4a\ 4cc\	4cc\
8C/	.	.
8AA/J)	8cc\ 8ff\	8ff\
=10	=10	=10
4FF/	(8a/ 8cc/L	(8cc\L
.	8f/) 8a/	8a\J)
8FF/ 8C/	8g/ 8b-/J	8b-\
(8FF/ 8F/L	4a\ 4cc\	4cc\
8C/	.	.
8AA/J)	8f/	8f/
=11	=11	=11
8BB-\L	8.b-\ (8.dd\L	(8.dd^\L
(8B-\	.	.
.	16a\ 16cc\k)	16cc\Jk)
8d\J)	8g\ 8b-\J	8b-\
8C\L	(8.a/ 8.cc/L	(8.cc^\L
(8A\	.	.
.	16g/) 16b-/k	16b-\Jk)
8c\J)	8f/ 8a/J	8a/
=12	=12	=12
*	*^	*
4.C/	4.g/ 4.b-/	8r	4.b-^\
.	.	8c\L	.
.	.	8d\J	.
4.C\ 4.B-\	4.g/	8.e\L	4.g^/
.	.	16d\k	.
.	.	8e\J	.
*	*v	*v	*
=13	=13	=13
8F/L	[4.A/ [4.f/	[4.f/
8C/	.	.
8AA/J	.	.
8FF/	8A/] 8f/]	8f/]
8r	8r	8r
==	==	==
*-	*-	*-
!!!ENC: Craig Stuart Sapp
!!!END: 2004/06/28/
!!!EFL: 173/651
